X: 12604
T: Farewell To The Troubles Of The World
R: jig
M: 6/8
K: Dmajor
A|:dec dcA|GFG AFD|F>EF GFD|F>GA/B/ =c2 A|
dec dcA|GFG AFD|F>EF GAG|1 FDD D2A:|2 FDD D2 E||
|:FED F>GA/B/|=cdB cAG|Afe dec|ABc d2 =c|
BAB d=cA|GFG AFD|F>EF GAG|1 GDD D2 E:|2 DED D3||

